src/assets/svg/shuffle.svg

<svg aria-hidden="true" focusable="false" data-prefix="fas" data-icon="random" role="img" xmlns="http://www.w3.org/2000/svg" viewBox="0 0 512 512" class="svg-inline--fa fa-random fa-w-16 fa-3x"><path fill="currentColor" d="M504.971 359.029c9.373 9.373 9.373 24.569 0 33.941l-80 79.984c-15.01 15.01-40.971 4.49-40.971-16.971V416h-58.785a12.004 12.004 0 0 1-8.773-3.812l-70.556-75.596 53.333-57.143L352 336h32v-39.981c0-21.438 25.943-31.998 40.971-16.971l80 79.981zM12 176h84l52.781 56.551 53.333-57.143-70.556-75.596A11.999 11.999 0 0 0 122.785 96H12c-6.627 0-12 5.373-12 12v56c0 6.627 5.373 12 12 12zm372 0v39.984c0 21.46 25.961 31.98 40.971 16.971l80-79.984c9.373-9.373 9.373-24.569 0-33.941l-80-79.981C409.943 24.021 384 34.582 384 56.019V96h-58.785a12.004 12.004 0 0 0-8.773 3.812L96 336H12c-6.627 0-12 5.373-12 12v56c0 6.627 5.373 12 12 12h110.785c3.326 0 6.503-1.381 8.773-3.812L352 176h32z" class=""></path></svg>

<?xml version="1.0" encoding="UTF-8" standalone="no"?><!-- Generator: Gravit.io --><svg xmlns="http://www.w3.org/2000/svg" xmlns:xlink="http://www.w3.org/1999/xlink" style="isolation:isolate" viewBox="0 0 512 512" width="512pt" height="512pt"><defs><clipPath id="_clipPath_YX2lWAmljFhzzzjB4ALnJUS8ALpvFm8D"><rect width="512" height="512"/></clipPath></defs><g clip-path="url(#_clipPath_YX2lWAmljFhzzzjB4ALnJUS8ALpvFm8D)"><path d=" M 504.971 359.029 C 514.344 368.402 514.344 383.598 504.971 392.97 L 424.971 472.954 C 409.961 487.964 384 477.444 384 455.983 L 384 416 L 325.215 416 C 321.889 416 318.712 414.619 316.442 412.188 L 245.886 336.592 L 299.219 279.449 L 352 336 L 384 336 L 384 296.019 C 384 274.581 409.943 264.021 424.971 279.048 L 504.971 359.029 L 504.971 359.029 Z  M 12 176 L 96 176 L 148.781 232.551 L 202.114 175.408 L 131.558 99.812 C 129.288 97.38 126.111 96 122.785 96 L 12 96 C 5.373 96 0 101.373 0 108 L 0 164 C 0 170.627 5.373 176 12 176 Z  M 384 176 L 384 215.984 C 384 237.444 409.961 247.964 424.971 232.955 L 504.971 152.971 C 514.344 143.598 514.344 128.402 504.971 119.03 L 424.971 39.049 C 409.943 24.021 384 34.582 384 56.019 L 384 96 L 325.215 96 C 321.889 96 318.712 97.381 316.442 99.812 L 96 336 L 12 336 C 5.373 336 0 341.373 0 348 L 0 404 C 0 410.627 5.373 416 12 416 L 122.785 416 C 126.111 416 129.288 414.619 131.558 412.188 L 352 176 L 384 176 L 384 176 Z " fill="rgb(255,255,255)"/></g></svg>
